Newaita-dark/apps/32/preferences-desktop-accessibility.svg

<?xml version="1.0" encoding="UTF-8"?>
<svg xmlns="http://www.w3.org/2000/svg" xmlns:xlink="http://www.w3.org/1999/xlink" width="32pt" height="32pt" viewBox="0 0 32 32" version="1.1">
<defs>
<radialGradient id="radial0" gradientUnits="userSpaceOnUse" cx="450.908936" cy="189.579361" fx="450.908936" fy="189.579361" r="21.166656" gradientTransform="matrix(0.00000017417,-0.0781325,-0.140638,-0.000000101539,44.523152,63.595329)">
<stop offset="0" style="stop-color:rgb(0%,0%,0%);stop-opacity:0.313725;"/>
<stop offset="0.222222" style="stop-color:rgb(0%,0%,0%);stop-opacity:0.27451;"/>
<stop offset="1" style="stop-color:rgb(0%,0%,0%);stop-opacity:0;"/>
</radialGradient>
<radialGradient id="radial1" gradientUnits="userSpaceOnUse" cx="450.908936" cy="189.579361" fx="450.908936" fy="189.579361" r="21.166656" gradientTransform="matrix(-0.00000017417,0.0781325,0.140638,0.000000101539,-12.770119,-7.527482)">
<stop offset="0" style="stop-color:rgb(0%,0%,0%);stop-opacity:0.313725;"/>
<stop offset="0.222222" style="stop-color:rgb(0%,0%,0%);stop-opacity:0.27451;"/>
<stop offset="1" style="stop-color:rgb(0%,0%,0%);stop-opacity:0;"/>
</radialGradient>
<radialGradient id="radial2" gradientUnits="userSpaceOnUse" cx="450.908936" cy="189.579361" fx="450.908936" fy="189.579361" r="21.166656" gradientTransform="matrix(-0.00000017417,-0.0781325,0.140638,-0.000000101539,-12.770119,63.595329)">
<stop offset="0" style="stop-color:rgb(0%,0%,0%);stop-opacity:0.313725;"/>
<stop offset="0.222222" style="stop-color:rgb(0%,0%,0%);stop-opacity:0.27451;"/>
<stop offset="1" style="stop-color:rgb(0%,0%,0%);stop-opacity:0;"/>
</radialGradient>
<radialGradient id="radial3" gradientUnits="userSpaceOnUse" cx="450.908936" cy="189.579361" fx="450.908936" fy="189.579361" r="21.166656" gradientTransform="matrix(0.00000017417,0.0781325,-0.140638,0.000000101539,44.52315,-7.527483)">
<stop offset="0" style="stop-color:rgb(0%,0%,0%);stop-opacity:0.313725;"/>
<stop offset="0.222222" style="stop-color:rgb(0%,0%,0%);stop-opacity:0.27451;"/>
<stop offset="1" style="stop-color:rgb(0%,0%,0%);stop-opacity:0;"/>
</radialGradient>
<linearGradient id="linear0" gradientUnits="userSpaceOnUse" x1="255.323059" y1="233.5" x2="255.323044" y2="254.666656" gradientTransform="matrix(0.0133601,0,0,0.062506,12.465386,13.438784)">
<stop offset="0" style="stop-color:rgb(0%,0%,0%);stop-opacity:0.27451;"/>
<stop offset="1" style="stop-color:rgb(0%,0%,0%);stop-opacity:0;"/>
</linearGradient>
<linearGradient id="linear1" gradientUnits="userSpaceOnUse" x1="254" y1="-168.666672" x2="254" y2="233.5" >
<stop offset="0" style="stop-color:rgb(100%,87.843137%,50.980392%);stop-opacity:1;"/>
<stop offset="1" style="stop-color:rgb(100%,83.529412%,30.980392%);stop-opacity:1;"/>
</linearGradient>
<linearGradient id="linear2" gradientUnits="userSpaceOnUse" x1="960.000122" y1="1295.118286" x2="960.000122" y2="535.118164" gradientTransform="matrix(0.016538,0,0,0.016538,0.000000126708,0.000000194971)">
<stop offset="0" style="stop-color:rgb(25.882353%,25.882353%,25.882353%);stop-opacity:1;"/>
<stop offset="1" style="stop-color:rgb(38.039216%,38.039216%,38.039216%);stop-opacity:1;"/>
</linearGradient>
</defs>
<g id="surface1">
<path style=" stroke:none;fill-rule:nonzero;fill:url(#radial0);" d="M 18.191406 28.035156 L 20.839844 28.035156 L 20.839844 26.710938 L 18.191406 26.710938 Z M 18.191406 28.035156 "/>
<path style=" stroke:none;fill-rule:nonzero;fill:url(#radial1);" d="M 13.5625 28.035156 L 10.914062 28.035156 L 10.914062 29.355469 L 13.5625 29.355469 Z M 13.5625 28.035156 "/>
<path style=" stroke:none;fill-rule:nonzero;fill:url(#radial2);" d="M 13.5625 28.035156 L 10.914062 28.035156 L 10.914062 26.710938 L 13.5625 26.710938 Z M 13.5625 28.035156 "/>
<path style=" stroke:none;fill-rule:nonzero;fill:url(#radial3);" d="M 18.191406 28.035156 L 20.839844 28.035156 L 20.839844 29.355469 L 18.191406 29.355469 Z M 18.191406 28.035156 "/>
<path style=" stroke:none;fill-rule:nonzero;fill:url(#linear0);" d="M 13.5625 27.703125 L 18.191406 27.703125 L 18.191406 29.355469 L 13.5625 29.355469 Z M 13.5625 27.703125 "/>
<path style="fill-rule:nonzero;fill:url(#linear1);stroke-width:3;stroke-linecap:round;stroke-linejoin:miter;stroke:rgb(20%,20%,20%);stroke-opacity:1;stroke-miterlimit:4;" d="M 253.975747 -168.691922 C 365.027642 -168.691922 455.081542 -78.638022 455.081542 32.413873 C 455.081542 143.465768 365.027642 233.519669 253.975747 233.519669 C 142.923851 233.519669 52.932445 143.465768 52.932445 32.413873 C 52.932445 -78.638022 142.923851 -168.691922 253.975747 -168.691922 Z M 253.975747 -168.691922 " transform="matrix(0.062506,0,0,0.062506,0,13.438783)"/>
<path style=" stroke:none;fill-rule:nonzero;fill:rgb(0%,0%,0%);fill-opacity:0.196078;" d="M 15.875 28.035156 C 8.914062 28.035156 3.308594 22.429688 3.308594 15.464844 C 3.308594 15.425781 3.308594 15.382812 3.308594 15.34375 C 3.375 22.246094 8.953125 27.789062 15.875 27.789062 C 22.796875 27.789062 28.378906 22.246094 28.445312 15.34375 C 28.445312 15.382812 28.445312 15.425781 28.445312 15.464844 C 28.445312 22.429688 22.839844 28.035156 15.875 28.035156 Z M 15.875 28.035156 "/>
<path style=" stroke:none;fill-rule:nonzero;fill:rgb(100%,100%,100%);fill-opacity:0.392157;" d="M 15.875 2.894531 C 8.914062 2.894531 3.308594 8.5 3.308594 15.464844 C 3.308594 15.507812 3.308594 15.546875 3.308594 15.589844 C 3.375 8.683594 8.953125 3.140625 15.875 3.140625 C 22.796875 3.140625 28.378906 8.683594 28.445312 15.589844 C 28.445312 15.546875 28.445312 15.507812 28.445312 15.464844 C 28.445312 8.5 22.839844 2.894531 15.875 2.894531 Z M 15.875 2.894531 "/>
<path style=" stroke:none;fill-rule:nonzero;fill:rgb(12.941177%,12.941177%,12.941177%);fill-opacity:1;" d="M 15.875 2.800781 C 8.863281 2.800781 3.214844 8.453125 3.214844 15.464844 C 3.214844 22.476562 8.863281 28.128906 15.875 28.128906 C 22.890625 28.128906 28.539062 22.476562 28.539062 15.464844 C 28.539062 8.453125 22.890625 2.800781 15.875 2.800781 Z M 15.875 2.988281 C 22.789062 2.988281 28.351562 8.550781 28.351562 15.464844 C 28.351562 22.378906 22.789062 27.941406 15.875 27.941406 C 8.964844 27.941406 3.402344 22.378906 3.402344 15.464844 C 3.402344 8.550781 8.964844 2.988281 15.875 2.988281 Z M 15.875 2.988281 "/>
<path style=" stroke:none;fill-rule:nonzero;fill:url(#linear2);" d="M 15.574219 8.851562 C 14.886719 8.851562 14.332031 9.402344 14.332031 10.09375 C 14.332031 10.78125 14.886719 11.335938 15.574219 11.335938 C 16.265625 11.335938 16.820312 10.78125 16.820312 10.09375 C 16.820312 9.402344 16.265625 8.851562 15.574219 8.851562 Z M 14.953125 11.957031 C 14.609375 11.957031 14.332031 12.234375 14.332031 12.578125 L 14.332031 16.929688 C 14.332031 17.273438 14.609375 17.550781 14.953125 17.550781 L 19.925781 17.550781 L 19.925781 20.035156 C 19.925781 20.378906 20.203125 20.65625 20.546875 20.65625 C 20.890625 20.65625 21.167969 20.378906 21.167969 20.035156 L 21.167969 16.929688 C 21.167969 16.929688 20.890625 16.304688 20.546875 16.304688 L 16.820312 16.304688 L 16.820312 14.441406 L 19.304688 14.441406 C 19.648438 14.441406 19.925781 14.164062 19.925781 13.820312 C 19.925781 13.476562 19.648438 13.199219 19.304688 13.199219 L 16.820312 13.199219 C 16.820312 11.957031 16.542969 11.957031 16.199219 11.957031 Z M 13.710938 14.324219 C 12.597656 14.96875 11.847656 16.164062 11.847656 17.550781 C 11.847656 19.613281 13.511719 21.277344 15.574219 21.277344 C 17.429688 21.277344 18.953125 19.941406 19.246094 18.171875 L 18.625 18.171875 C 18.335938 19.589844 17.082031 20.65625 15.574219 20.65625 C 13.855469 20.65625 12.46875 19.269531 12.46875 17.550781 C 12.46875 16.527344 12.957031 15.628906 13.710938 15.0625 Z M 13.710938 14.324219 "/>
</g>
</svg>

<svg xmlns="http://www.w3.org/2000/svg" width="32pt" height="32pt" viewBox="0 0 32 32"><defs><radialGradient id="a" gradientUnits="userSpaceOnUse" cx="450.909" cy="189.579" fx="450.909" fy="189.579" r="21.167" gradientTransform="matrix(0 -.07813 -.14064 0 44.523 63.595)"><stop offset="0" stop-opacity=".314"/><stop offset=".222" stop-opacity=".275"/><stop offset="1" stop-opacity="0"/></radialGradient><radialGradient id="b" gradientUnits="userSpaceOnUse" cx="450.909" cy="189.579" fx="450.909" fy="189.579" r="21.167" gradientTransform="matrix(0 .07813 .14064 0 -12.77 -7.527)"><stop offset="0" stop-opacity=".314"/><stop offset=".222" stop-opacity=".275"/><stop offset="1" stop-opacity="0"/></radialGradient><radialGradient id="c" gradientUnits="userSpaceOnUse" cx="450.909" cy="189.579" fx="450.909" fy="189.579" r="21.167" gradientTransform="matrix(0 -.07813 .14064 0 -12.77 63.595)"><stop offset="0" stop-opacity=".314"/><stop offset=".222" stop-opacity=".275"/><stop offset="1" stop-opacity="0"/></radialGradient><radialGradient id="d" gradientUnits="userSpaceOnUse" cx="450.909" cy="189.579" fx="450.909" fy="189.579" r="21.167" gradientTransform="matrix(0 .07813 -.14064 0 44.523 -7.527)"><stop offset="0" stop-opacity=".314"/><stop offset=".222" stop-opacity=".275"/><stop offset="1" stop-opacity="0"/></radialGradient><linearGradient id="e" gradientUnits="userSpaceOnUse" x1="255.323" y1="233.5" x2="255.323" y2="254.667" gradientTransform="matrix(.01336 0 0 .0625 12.465 13.439)"><stop offset="0" stop-opacity=".275"/><stop offset="1" stop-opacity="0"/></linearGradient><linearGradient id="f" gradientUnits="userSpaceOnUse" x1="254" y1="-168.667" x2="254" y2="233.5"><stop offset="0" stop-color="#ffe082"/><stop offset="1" stop-color="#ffd54f"/></linearGradient><linearGradient id="g" gradientUnits="userSpaceOnUse" x1="960" y1="1295.118" x2="960" y2="535.118" gradientTransform="matrix(.01654 0 0 .01654 0 0)"><stop offset="0" stop-color="#424242"/><stop offset="1" stop-color="#616161"/></linearGradient></defs><path d="M18.191 28.035h2.649v-1.324H18.19zm0 0" fill="url(#a)"/><path d="M13.563 28.035h-2.649v1.32h2.649zm0 0" fill="url(#b)"/><path d="M13.563 28.035h-2.649v-1.324h2.649zm0 0" fill="url(#c)"/><path d="M18.191 28.035h2.649v1.32H18.19zm0 0" fill="url(#d)"/><path d="M13.563 27.703h4.628v1.652h-4.628zm0 0" fill="url(#e)"/><path d="M253.976-168.692c111.052 0 201.106 90.054 201.106 201.106 0 111.052-90.054 201.106-201.106 201.106-111.052 0-201.044-90.054-201.044-201.106 0-111.052 89.992-201.106 201.044-201.106zm0 0" transform="matrix(.0625 0 0 .0625 0 13.439)" fill="url(#f)" stroke-width="3" stroke-linecap="round" stroke="#333"/><path d="M15.875 28.035a12.54 12.54 0 0 1-12.566-12.57v-.121a12.542 12.542 0 0 0 12.566 12.445 12.545 12.545 0 0 0 12.57-12.445v.12c0 6.966-5.605 12.571-12.57 12.571zm0 0" fill-opacity=".196"/><path d="M15.875 2.895A12.54 12.54 0 0 0 3.309 15.59 12.543 12.543 0 0 1 15.875 3.14a12.546 12.546 0 0 1 12.57 12.45v-.125c0-6.965-5.605-12.57-12.57-12.57zm0 0" fill="#fff" fill-opacity=".392"/><path d="M15.875 2.8a12.638 12.638 0 0 0-12.66 12.665 12.638 12.638 0 0 0 12.66 12.664 12.64 12.64 0 0 0 12.664-12.664A12.64 12.64 0 0 0 15.875 2.8zm0 .188a12.447 12.447 0 0 1 12.477 12.477A12.447 12.447 0 0 1 15.875 27.94 12.446 12.446 0 0 1 3.402 15.465 12.446 12.446 0 0 1 15.875 2.988zm0 0" fill="#212121"/><path d="M15.574 8.852c-.687 0-1.242.55-1.242 1.242a1.24 1.24 0 0 0 1.242 1.242 1.241 1.241 0 1 0 0-2.484zm-.62 3.105a.62.62 0 0 0-.622.621v4.352a.62.62 0 0 0 .621.62h4.973v2.485a.62.62 0 1 0 1.242 0V16.93s-.277-.625-.621-.625H16.82V14.44h2.485a.62.62 0 1 0 0-1.242H16.82c0-1.242-.277-1.242-.62-1.242zm-1.243 2.367a3.715 3.715 0 0 0-1.863 3.227 3.721 3.721 0 0 0 3.726 3.726 3.709 3.709 0 0 0 3.672-3.105h-.621a3.11 3.11 0 0 1-3.05 2.484 3.1 3.1 0 0 1-3.106-3.105c0-1.024.488-1.922 1.242-2.488zm0 0" fill="url(#g)"/></svg>
